components/Common/Svg/svgs/retail.svg

<svg
  width="90"
  height="90"
  viewBox="0 0 90 90"
  fill="none"
  xmlns="http://www.w3.org/2000/svg"
>
  <circle
    opacity="0.5"
    cx="45"
    cy="45"
    r="45"
    fill="#FFE603"
  ></circle>
  <path
    d="M58.75 32.5H31.25C30.5596 32.5 30 33.0596 30 33.75V56.25C30 56.9404 30.5596 57.5 31.25 57.5H58.75C59.4404 57.5 60 56.9404 60 56.25V33.75C60 33.0596 59.4404 32.5 58.75 32.5Z"
    stroke="#161616"
    stroke-width="2"
    stroke-linecap="round"
    stroke-linejoin="round"
  ></path>
  <path
    d="M51.25 38.75C51.25 40.4076 50.5915 41.9973 49.4194 43.1694C48.2473 44.3415 46.6576 45 45 45C43.3424 45 41.7527 44.3415 40.5806 43.1694C39.4085 41.9973 38.75 40.4076 38.75 38.75"
    stroke="#161616"
    stroke-width="2"
    stroke-linecap="round"
    stroke-linejoin="round"
  ></path>
</svg>

<svg width="90" height="90" viewBox="0 0 90 90" fill="none" xmlns="http://www.w3.org/2000/svg"><circle opacity=".5" cx="45" cy="45" r="45" fill="#FFE603"/><path d="M58.75 32.5h-27.5c-.69 0-1.25.56-1.25 1.25v22.5c0 .69.56 1.25 1.25 1.25h27.5c.69 0 1.25-.56 1.25-1.25v-22.5c0-.69-.56-1.25-1.25-1.25Z" stroke="#161616" stroke-width="2" stroke-linecap="round" stroke-linejoin="round"/><path d="M51.25 38.75a6.25 6.25 0 0 1-12.5 0" stroke="#161616" stroke-width="2" stroke-linecap="round" stroke-linejoin="round"/></svg>
